src/assets/route-marker-icon.svg

<svg width="27" height="26" viewBox="0 0 27 26" fill="none" xmlns="http://www.w3.org/2000/svg">
<path fill-rule="evenodd" clip-rule="evenodd" d="M19.4477 11.5556H15.8027C13.4663 11.5556 11.5714 13.4478 11.5714 15.781V15.9967C11.5714 18.33 13.4663 20.2222 15.8027 20.2222H19.3802C19.8672 20.2222 20.3329 20.4148 20.6772 20.7586C21.0214 21.1024 21.2143 21.5675 21.2143 22.0538V22.2425C21.2143 22.7288 21.0214 23.1939 20.6772 23.5377C20.3329 23.8815 19.8672 24.0741 19.3802 24.0741H7.55229C8.80393 22.1125 9.64286 18.8799 9.64286 17.3333C9.64286 14.6756 7.48286 12.5185 4.82143 12.5185C2.16 12.5185 0 14.6756 0 17.3333C0 18.9482 0.914143 22.4004 2.25836 24.3254C3.00568 25.3953 3.92271 26 4.82143 26H19.3802C20.3783 26 21.3348 25.6042 22.0407 24.8993C22.7465 24.1944 23.1429 23.2392 23.1429 22.2425C23.1429 22.1799 23.1429 22.1164 23.1429 22.0538C23.1429 21.0571 22.7465 20.1019 22.0407 19.397C21.3348 18.6921 20.3783 18.2963 19.3802 18.2963H18.3214H15.8027C14.5308 18.2963 13.5 17.2669 13.5 15.9967V15.781C13.5 14.5109 14.5308 13.4815 15.8027 13.4815H22.1786C23.0773 13.4815 23.9943 12.8767 24.7416 11.8069C26.0859 9.88193 27 6.4297 27 4.81482C27 2.15704 24.84 0 22.1786 0C19.5171 0 17.3571 2.15704 17.3571 4.81482C17.3571 6.36133 18.1961 9.594 19.4477 11.5556ZM4.82143 24.0741C4.62279 24.0741 4.45596 23.9258 4.27661 23.7515C3.9555 23.4376 3.66429 22.9936 3.39718 22.4881C2.51486 20.8212 1.92857 18.5072 1.92857 17.3333C1.92857 15.7387 3.22457 14.4444 4.82143 14.4444C6.41829 14.4444 7.71429 15.7387 7.71429 17.3333C7.71429 18.5072 7.128 20.8212 6.24568 22.4881C5.97857 22.9936 5.68736 23.4376 5.36625 23.7515C5.18689 23.9258 5.02007 24.0741 4.82143 24.0741ZM4.82143 15.8889C5.61986 15.8889 6.26786 16.536 6.26786 17.3333C6.26786 18.1307 5.61986 18.7778 4.82143 18.7778C4.023 18.7778 3.375 18.1307 3.375 17.3333C3.375 16.536 4.023 15.8889 4.82143 15.8889ZM22.1786 1.92593C23.7754 1.92593 25.0714 3.22015 25.0714 4.81482C25.0714 5.98867 24.4851 8.30267 23.6028 9.96956C23.3357 10.4751 23.0445 10.919 22.7234 11.233C22.544 11.4073 22.3772 11.5556 22.1786 11.5556C21.9799 11.5556 21.8131 11.4073 21.6337 11.233C21.3126 10.919 21.0214 10.4751 20.7543 9.96956C19.872 8.30267 19.2857 5.98867 19.2857 4.81482C19.2857 3.22015 20.5817 1.92593 22.1786 1.92593ZM22.1786 3.37037C22.977 3.37037 23.625 4.01748 23.625 4.81482C23.625 5.61215 22.977 6.25926 22.1786 6.25926C21.3801 6.25926 20.7321 5.61215 20.7321 4.81482C20.7321 4.01748 21.3801 3.37037 22.1786 3.37037Z" fill="#707070"/>
</svg>

<svg width="27" height="26" fill="none" xmlns="http://www.w3.org/2000/svg"><path fill-rule="evenodd" clip-rule="evenodd" d="M19.448 11.556h-3.645a4.229 4.229 0 00-4.232 4.225v.216a4.229 4.229 0 004.232 4.225h3.577a1.834 1.834 0 011.834 1.832v.189a1.829 1.829 0 01-1.834 1.831H7.552c1.252-1.962 2.09-5.194 2.09-6.74a4.82 4.82 0 00-4.82-4.816A4.82 4.82 0 000 17.334c0 1.615.914 5.067 2.258 6.992C3.006 25.395 3.923 26 4.821 26h14.56a3.764 3.764 0 003.762-3.758v-.188a3.764 3.764 0 00-3.763-3.758h-3.577a2.3 2.3 0 01-2.303-2.3v-.215a2.3 2.3 0 012.303-2.3h6.376c.898 0 1.815-.604 2.563-1.674C26.086 9.882 27 6.43 27 4.815A4.82 4.82 0 0022.179 0a4.82 4.82 0 00-4.822 4.815c0 1.546.84 4.779 2.09 6.74zM4.82 24.074c-.198 0-.365-.148-.544-.323-.322-.313-.613-.757-.88-1.263-.882-1.667-1.468-3.98-1.468-5.155a2.892 2.892 0 012.892-2.889 2.892 2.892 0 012.893 2.89c0 1.173-.586 3.487-1.468 5.154-.267.506-.559.95-.88 1.264-.18.174-.346.322-.545.322zm0-8.185c.799 0 1.447.647 1.447 1.444a1.446 1.446 0 01-2.893 0c0-.797.648-1.444 1.446-1.444zM22.18 1.926a2.892 2.892 0 012.892 2.889c0 1.174-.586 3.488-1.468 5.155-.267.505-.559.949-.88 1.263-.179.174-.346.323-.544.323-.2 0-.366-.149-.545-.323-.321-.314-.613-.758-.88-1.263-.882-1.667-1.468-3.981-1.468-5.155a2.892 2.892 0 012.893-2.89zm0 1.444a1.446 1.446 0 11-1.447 1.444c0-.797.648-1.444 1.447-1.444z" fill="#707070"/></svg>
